X: 11312
T: Eagle's Whistle, The
R: waltz
M: 3/4
K: Dmajor
FF AF ED|FF AF ED|E2 EF ED|E2 EF ED|
FF AF ED|FF AF ED|E2 EF EB,|D6||
B2 A2 B2|F2 E2 D2|B,E E2 (ED)|B,E E2 E2|
B2 A2 B2|F2 E2 D2|A,D D2 DC|A,D D4||

